src/assets/images/svg/languages/logo-tailwind.svg

<svg width="46" height="28" viewBox="0 0 46 28" fill="none" xmlns="http://www.w3.org/2000/svg">
<g clip-path="url(#clip0_98_96)">
<path d="M23.0001 0C16.869 0 13.0372 3.11118 11.5043 9.33294C13.8037 6.22177 16.486 5.05551 19.5513 5.83302C21.3004 6.27664 22.5504 7.56488 23.9344 8.9903C26.1884 11.3123 28.7971 13.9997 34.4958 13.9997C40.6263 13.9997 44.4586 10.8885 45.9909 4.66618C43.6921 7.77736 41.0098 8.94419 37.944 8.16669C36.1954 7.72307 34.9454 6.43482 33.5614 5.0094C31.3075 2.6874 28.6982 0 23.0001 0ZM11.5043 13.9997C5.37379 13.9997 1.5415 17.1109 0.00915527 23.3332C2.30796 20.2221 4.99028 19.0552 8.05611 19.8333C9.80465 20.2775 11.0547 21.5652 12.4387 22.99C14.6926 25.312 17.3019 28 23.0001 28C29.1311 28 32.9629 24.8888 34.4958 18.6665C32.1964 21.7776 29.5141 22.9445 26.4488 22.1664C24.6997 21.7234 23.4497 20.4345 22.0657 19.0097C19.8117 16.6877 17.203 13.9997 11.5043 13.9997Z" fill="#6CEBB6"/>
</g>
<defs>
<clipPath id="clip0_98_96">
<rect width="46" height="28" fill="white"/>
</clipPath>
</defs>
</svg>

<svg xmlns="http://www.w3.org/2000/svg" width="46" height="28" fill="none"><g clip-path="url(#a)"><path fill="#6CEBB6" d="M23 0c-6.131 0-9.963 3.111-11.496 9.333 2.3-3.111 4.982-4.277 8.047-3.5 1.75.444 3 1.732 4.383 3.157C26.188 11.312 28.797 14 34.496 14c6.13 0 9.963-3.111 11.495-9.334-2.299 3.111-4.981 4.278-8.047 3.5-1.749-.443-2.999-1.731-4.383-3.157C31.308 2.687 28.698 0 23.001 0ZM11.504 14C5.374 14 1.541 17.11.01 23.333c2.299-3.11 4.981-4.278 8.047-3.5 1.749.445 2.999 1.732 4.383 3.157C14.693 25.312 17.302 28 23 28c6.131 0 9.963-3.111 11.496-9.334-2.3 3.112-4.982 4.279-8.047 3.5-1.75-.443-3-1.732-4.383-3.156C19.812 16.688 17.203 14 11.504 14Z"/></g><defs><clipPath id="a"><path fill="#fff" d="M0 0h46v28H0z"/></clipPath></defs></svg>
